img/scissors.svg

<svg width="43" height="43" viewBox="0 0 43 43" fill="none" xmlns="http://www.w3.org/2000/svg">
<g clip-path="url(#clip0_1_80)">
<path d="M2.576 38.895C3.17742 39.7351 3.97031 40.4198 4.88902 40.8925C5.80774 41.3651 6.82583 41.6121 7.859 41.613C9.10479 41.6113 10.3239 41.2518 11.3712 40.5772C12.4186 39.9027 13.2501 38.9415 13.767 37.808C14.7528 35.6468 15.2614 33.2985 15.258 30.923C15.258 29.17 15.838 27.433 16.889 26.029L17.117 25.727L15.17 23.78L3.605 31.49C2.92223 31.944 2.3624 32.5599 1.9754 33.2828C1.5884 34.0057 1.38627 34.8131 1.387 35.633C1.387 36.677 1.707 37.679 2.314 38.528L2.576 38.895ZM27.048 30.518L22.965 24.274H20.4L18.556 26.118L18.45 26.259L27.048 36.352V30.518ZM28.445 41.603H41.613V22.188H39.533V20.802H41.613V1.387H28.445V6.347L29.979 4.547C30.2665 4.20832 30.6243 3.93628 31.0275 3.74978C31.4308 3.56328 31.8697 3.46679 32.314 3.467C33.134 3.467 33.903 3.787 34.482 4.366L35.572 5.456L28.445 16.358V17.741L31.505 20.801H33.99V22.188H31.505L28.445 25.249V41.603ZM23.943 23.233L27.048 27.985V24.68L30.23 21.5L27.115 18.384L23.943 23.233ZM18.033 24.681L19.826 22.887H22.512L33.788 5.64L33.495 5.347C32.83 4.681 31.638 4.727 31.025 5.447L16.201 22.849L18.033 24.681ZM15.258 15.545C15.258 13.152 14.756 10.836 13.766 8.66C13.2493 7.52657 12.4179 6.56542 11.3707 5.89087C10.3236 5.21632 9.10464 4.85678 7.859 4.855C6.82597 4.85587 5.80802 5.10287 4.88946 5.57554C3.97091 6.0482 3.1782 6.73293 2.577 7.573L2.316 7.939C1.70961 8.78268 1.38455 9.79601 1.387 10.835C1.3861 11.6551 1.58816 12.4627 1.97517 13.1858C2.36217 13.9088 2.92209 14.5249 3.605 14.979L14.738 22.4L14.793 22.364L16.685 20.142C15.7605 18.7868 15.2635 17.1855 15.258 15.545ZM2.835 30.335L13.488 23.234L2.836 16.133C1.96285 15.5525 1.24694 14.7649 0.752102 13.8405C0.257265 12.916 -0.00111508 11.8835 3.61725e-06 10.835C3.61725e-06 9.499 0.410004 8.219 1.186 7.133L1.447 6.767C2.17676 5.74712 3.13903 4.9158 4.2541 4.34192C5.36917 3.76804 6.60493 3.46812 7.859 3.467C9.37103 3.46917 10.8506 3.90564 12.1217 4.7245C13.3928 5.54336 14.4019 6.71013 15.029 8.086C16.0976 10.4273 16.6488 12.9714 16.645 15.545C16.649 16.7774 16.9874 17.9857 17.624 19.041L27.048 7.977V0H43V43H27.048V38.491L17.623 27.427C16.987 28.4825 16.649 29.6907 16.645 30.923C16.645 33.515 16.101 36.023 15.029 38.383C14.4017 39.7583 13.3926 40.9246 12.1217 41.7431C10.8509 42.5615 9.37164 42.9978 7.86 43C6.60642 42.9989 5.37114 42.6991 4.25645 42.1256C3.14176 41.5521 2.17972 40.7213 1.45 39.702L1.188 39.334C0.414568 38.2555 -0.000315683 36.9612 0.00200362 35.634C0.000246962 34.5853 0.258125 33.5525 0.752628 32.6277C1.24713 31.7029 1.96288 30.9149 2.836 30.334L2.835 30.335Z" fill="#BB9D60"/>
<path d="M4.836 37.28C5.18018 37.7606 5.6339 38.1524 6.1596 38.4228C6.68529 38.6932 7.26784 38.8345 7.859 38.835C8.57236 38.8339 9.27039 38.6279 9.86998 38.2414C10.4696 37.8549 10.9455 37.3042 11.241 36.655C12.0626 34.8552 12.4862 32.8994 12.483 30.921C12.483 30.192 12.556 29.469 12.701 28.758L5.146 33.795C4.8434 33.9959 4.59525 34.2687 4.42373 34.5889C4.2522 34.9091 4.16263 35.2667 4.163 35.63C4.163 36.092 4.305 36.536 4.573 36.91L4.836 37.28ZM13.531 26.536C13.6542 26.4536 13.8006 26.4128 13.9486 26.4196C14.0967 26.4264 14.2387 26.4804 14.3538 26.5738C14.469 26.6671 14.5512 26.7949 14.5885 26.9383C14.6257 27.0818 14.6161 27.2334 14.561 27.371C14.1064 28.4994 13.8725 29.7045 13.872 30.921C13.872 33.113 13.412 35.237 12.505 37.231C12.0985 38.1223 11.4446 38.8781 10.6209 39.4086C9.79729 39.939 8.83865 40.2217 7.859 40.223C7.04683 40.2226 6.24645 40.0286 5.52421 39.6572C4.80197 39.2857 4.17868 38.7474 3.706 38.087L3.442 37.717C3.0069 37.1082 2.77363 36.3783 2.775 35.63C2.77442 35.0382 2.92031 34.4555 3.19967 33.9337C3.47902 33.412 3.88314 32.9676 4.376 32.64L13.531 26.536ZM11.241 9.80599C10.9452 9.15699 10.4692 8.60661 9.86968 8.22032C9.27012 7.83403 8.57222 7.62809 7.859 7.62699C7.26763 7.62755 6.68492 7.76909 6.15919 8.03987C5.63345 8.31065 5.17985 8.70286 4.836 9.18399L4.573 9.54999C4.40076 9.79056 4.27874 10.0634 4.21423 10.3521C4.14971 10.6409 4.14403 10.9396 4.1975 11.2306C4.25098 11.5216 4.36253 11.7989 4.52549 12.0458C4.68845 12.2928 4.89948 12.5044 5.146 12.668L12.701 17.707C12.5562 16.9948 12.4835 16.2698 12.484 15.543C12.484 13.549 12.066 11.619 11.241 9.80599ZM13.531 19.926L4.376 13.822C3.88326 13.4944 3.47929 13.0499 3.20011 12.5281C2.92093 12.0064 2.77522 11.4237 2.776 10.832C2.776 10.08 3.006 9.35799 3.443 8.74399L3.706 8.37699C4.17878 7.71634 4.80222 7.17788 5.52462 6.80624C6.24703 6.43461 7.04761 6.24049 7.86 6.23999C8.83953 6.24127 9.79807 6.52395 10.6215 7.05438C11.445 7.58481 12.0988 8.34066 12.505 9.23199C13.4095 11.2125 13.8761 13.3648 13.873 15.542C13.8734 16.7584 14.107 17.9635 14.561 19.092C14.6033 19.1972 14.619 19.3111 14.6069 19.4238C14.5949 19.5365 14.5553 19.6445 14.4917 19.7383C14.4281 19.8321 14.3424 19.9089 14.2422 19.9618C14.142 20.0148 14.0303 20.0423 13.917 20.042C13.78 20.0422 13.6461 20.0018 13.532 19.926H13.531ZM22.19 20.11H20.803V21.497H22.19V20.11ZM38.15 20.81H35.376V22.197H38.15V20.81Z" fill="#BB9D60"/>
</g>
<defs>
<clipPath id="clip0_1_80">
<rect width="43" height="43" fill="white"/>
</clipPath>
</defs>
</svg>

<svg width="43" height="43" fill="none" xmlns="http://www.w3.org/2000/svg"><g clip-path="url(#clip0_1_80)" fill="#BB9D60"><path d="M2.576 38.895a6.504 6.504 0 005.283 2.718 6.502 6.502 0 005.908-3.805 16.533 16.533 0 001.491-6.885c0-1.753.58-3.49 1.631-4.894l.228-.302-1.947-1.947-11.565 7.71a4.97 4.97 0 00-2.218 4.143c0 1.044.32 2.046.927 2.895l.262.367zm24.472-8.377l-4.083-6.244H20.4l-1.844 1.844-.106.141 8.598 10.093v-5.834zm1.397 11.085h13.168V22.188h-2.08v-1.386h2.08V1.387H28.445v4.96l1.534-1.8a3.061 3.061 0 014.503-.181l1.09 1.09-7.127 10.902v1.383l3.06 3.06h2.485v1.387h-2.485l-3.06 3.061v16.354zm-4.502-18.37l3.105 4.752V24.68l3.182-3.18-3.115-3.116-3.172 4.849zm-5.91 1.448l1.793-1.794h2.686L33.788 5.64l-.293-.293c-.665-.666-1.857-.62-2.47.1L16.201 22.849l1.832 1.832zm-2.775-9.136c0-2.393-.502-4.709-1.492-6.885a6.502 6.502 0 00-5.907-3.805 6.502 6.502 0 00-5.282 2.718l-.261.366a4.942 4.942 0 00-.929 2.896 4.97 4.97 0 002.218 4.144L14.738 22.4l.055-.036 1.892-2.222a8.206 8.206 0 01-1.427-4.597zM2.835 30.335l10.653-7.101-10.652-7.101A6.354 6.354 0 010 10.835c0-1.336.41-2.616 1.186-3.702l.261-.366a7.893 7.893 0 016.412-3.3 7.892 7.892 0 017.17 4.619 17.9 17.9 0 011.616 7.459 6.811 6.811 0 00.979 3.496l9.424-11.064V0H43v43H27.048v-4.509l-9.425-11.064a6.817 6.817 0 00-.978 3.496c0 2.592-.544 5.1-1.616 7.46A7.892 7.892 0 017.86 43a7.892 7.892 0 01-6.41-3.298l-.262-.368a6.33 6.33 0 01-1.186-3.7 6.353 6.353 0 012.834-5.3l-.001.001z"/><path d="M4.836 37.28a3.722 3.722 0 003.023 1.555 3.722 3.722 0 003.382-2.18 13.754 13.754 0 001.242-5.734c0-.729.073-1.452.218-2.163l-7.555 5.037a2.2 2.2 0 00-.573 3.115l.263.37zm8.695-10.744a.694.694 0 011.03.835 9.51 9.51 0 00-.689 3.55c0 2.192-.46 4.316-1.367 6.31a5.114 5.114 0 01-4.646 2.992 5.111 5.111 0 01-4.153-2.136l-.264-.37a3.578 3.578 0 01-.667-2.087 3.586 3.586 0 011.601-2.99l9.155-6.104zm-2.29-16.73a3.723 3.723 0 00-3.382-2.179 3.72 3.72 0 00-3.023 1.557l-.263.366a2.203 2.203 0 00.573 3.118l7.555 5.039a10.824 10.824 0 01-.217-2.164c0-1.994-.418-3.924-1.243-5.737zm2.29 10.12l-9.155-6.104a3.584 3.584 0 01-1.6-2.99c0-.752.23-1.474.667-2.088l.263-.367A5.112 5.112 0 017.86 6.24a5.112 5.112 0 014.645 2.992 15.137 15.137 0 011.368 6.31 9.52 9.52 0 00.688 3.55.691.691 0 01-.644.95.694.694 0 01-.385-.116h-.001zm8.659.184h-1.387v1.387h1.387V20.11zm15.96.7h-2.774v1.387h2.774V20.81z"/></g><defs><clipPath id="clip0_1_80"><path fill="#fff" d="M0 0h43v43H0z"/></clipPath></defs></svg>
